packages/ffe-icons/icons/filled/md/tune.svg

<svg xmlns="http://www.w3.org/2000/svg" height="24" viewBox="0 -960 960 960" width="24"><path d="M479.987-130.001q-12.756 0-21.371-8.625-8.615-8.624-8.615-21.374v-160q0-12.75 8.628-21.374 8.629-8.625 21.384-8.625 12.756 0 21.371 8.625 8.615 8.624 8.615 21.374v50.001H800q12.75 0 21.375 8.628 8.624 8.629 8.624 21.384 0 12.756-8.624 21.371-8.625 8.615-21.375 8.615H509.999V-160q0 12.75-8.628 21.374-8.629 8.625-21.384 8.625Zm-319.987-80q-12.75 0-21.374-8.628-8.625-8.629-8.625-21.384 0-12.756 8.625-21.371 8.624-8.615 21.374-8.615h160q12.75 0 21.374 8.628 8.625 8.629 8.625 21.384 0 12.756-8.625 21.371-8.624 8.615-21.374 8.615H160Zm159.987-160q-12.756 0-21.371-8.625-8.615-8.624-8.615-21.374v-50.001H160q-12.75 0-21.374-8.628-8.625-8.629-8.625-21.384 0-12.756 8.625-21.371 8.624-8.615 21.374-8.615h130.001V-560q0-12.75 8.628-21.375 8.629-8.624 21.384-8.624 12.756 0 21.371 8.624 8.615 8.625 8.615 21.375v160q0 12.75-8.628 21.374-8.629 8.625-21.384 8.625Zm160.013-80q-12.75 0-21.374-8.628-8.625-8.629-8.625-21.384 0-12.756 8.625-21.371 8.624-8.615 21.374-8.615h320q12.75 0 21.375 8.628 8.624 8.629 8.624 21.384 0 12.756-8.624 21.371-8.625 8.615-21.375 8.615H480Zm159.987-160q-12.756 0-21.371-8.624-8.615-8.625-8.615-21.375v-160q0-12.75 8.628-21.375 8.629-8.624 21.384-8.624 12.756 0 21.371 8.624 8.615 8.625 8.615 21.375v50.001H800q12.75 0 21.375 8.628 8.624 8.629 8.624 21.384 0 12.756-8.624 21.371-8.625 8.615-21.375 8.615H669.999V-640q0 12.75-8.628 21.375-8.629 8.624-21.384 8.624Zm-479.987-80q-12.75 0-21.374-8.628-8.625-8.629-8.625-21.384 0-12.756 8.625-21.371 8.624-8.615 21.374-8.615h320q12.75 0 21.374 8.628 8.625 8.629 8.625 21.384 0 12.756-8.625 21.371-8.624 8.615-21.374 8.615H160Z"/></svg>

<svg xmlns="http://www.w3.org/2000/svg" height="24" viewBox="0 -960 960 960" width="24"><path d="M479.99-130q-12.76 0-21.37-8.63Q450-147.25 450-160v-160q0-12.75 8.63-21.37 8.63-8.63 21.38-8.63 12.76 0 21.37 8.63Q510-332.75 510-320v50h290q12.75 0 21.37 8.63 8.63 8.63 8.63 21.38 0 12.76-8.63 21.37Q812.75-210 800-210H510v50q0 12.75-8.63 21.37-8.63 8.63-21.38 8.63ZM160-210q-12.75 0-21.37-8.63-8.63-8.63-8.63-21.38 0-12.76 8.63-21.37Q147.25-270 160-270h160q12.75 0 21.37 8.63 8.63 8.63 8.63 21.38 0 12.76-8.63 21.37Q332.75-210 320-210H160Zm159.99-160q-12.76 0-21.37-8.63Q290-387.25 290-400v-50H160q-12.75 0-21.37-8.63-8.63-8.63-8.63-21.38 0-12.76 8.63-21.37Q147.25-510 160-510h130v-50q0-12.75 8.63-21.37 8.63-8.63 21.38-8.63 12.76 0 21.37 8.63Q350-572.75 350-560v160q0 12.75-8.63 21.37-8.63 8.63-21.38 8.63ZM480-450q-12.75 0-21.37-8.63-8.63-8.63-8.63-21.38 0-12.76 8.63-21.37Q467.25-510 480-510h320q12.75 0 21.37 8.63 8.63 8.63 8.63 21.38 0 12.76-8.63 21.37Q812.75-450 800-450H480Zm159.99-160q-12.76 0-21.37-8.63Q610-627.25 610-640v-160q0-12.75 8.63-21.37 8.63-8.63 21.38-8.63 12.76 0 21.37 8.63Q670-812.75 670-800v50h130q12.75 0 21.37 8.63 8.63 8.63 8.63 21.38 0 12.76-8.63 21.37Q812.75-690 800-690H670v50q0 12.75-8.63 21.37-8.63 8.63-21.38 8.63ZM160-690q-12.75 0-21.37-8.63-8.63-8.63-8.63-21.38 0-12.76 8.63-21.37Q147.25-750 160-750h320q12.75 0 21.37 8.63 8.63 8.63 8.63 21.38 0 12.76-8.63 21.37Q492.75-690 480-690H160Z"/></svg>
